X:1291
T:Keefe's
O:ireland
R:slide
Z:id:hn-slide-39
M:6/8
K:D
A2F ABd|~f3 def|gfe fed|B3 B2A|
Bcd B2A|Bcd B2A|Bcd efe|1 d3 dcB:|2 d3 def||
|:a2a a2f|e2d BAB|e2d BAB|e2d Bef|
a2a a2f|e2d B2A|Bcd efe|1 d3 def:|2 d3 dcB||
